X:10701
T: L\"andler FC
T:Hanny Christen. Bd.IX Uri II, Schwyz, Unterwalden I. S.114 (LD11671) orig. FC-Dur
M:3/4
L:1/8
I:abc-charset utf-8
K:C %%MIDI gchordon
GAB | "C"c6 | e6 | "G7"g3f ed | "C"c2 z2z2 |: "C"ce gc' ba | Ta2 ge c2 | Gg eG ce | "G7"Gg fG Bd | 
Bd fc' ba | Ta2 gf B2 |1 Gg fG Bd | "C"Gg eG ce :|2 GB df ed | "C"c2 z2z2 |: "G7"gf da gf | "C"eg c'b ag | 
"G7"ba gf ed | "C"ce gc' ef | "G7"gf da gf | "C"eg c'e gc' | "G7"df bd fb | "C"c'2 z2z2 :: "C"G2 cg ec | 
ge c'e gc | "G7"dB gd bg | "C"c'e gc e2 | G2 cG ec | ge c'e gc | "G7"Ba gB fB | "C"c2z2z2 :|  
"G7"GB df ed | "C"ce gc' ba | T"G7"g2 fd B2 | T"C"a2 ge c2 | "G7"GB df ed | "C"ce gc' ba | "G7"gf da gB | 
"C"c2z2z2 :: [K:F] "F"a6 | f6 | c6 | A6 | dc Af cf | cd Af cf | "C7"dc Be ce | Bc de fg | b6 | 
g6 | e6 | c6 | dc Be ce | dc Be ce | "F"dc Ac fa | c'2 FA cf | a6 | f6 | c6 | 
A6 | dc Af cf | dc Ac fa | "Bb"c'2 b3d | d6 | ba gf ed | cd cB AG | "F"FA ca cf | 
Td4 cA | "C7"Bc eb ce | dc =Bc de | "F"fa gf eg | f2 z2z2 :: "C7"C2 EG ce | 
"F"f3c =Bc | "Bb"d3 ^c df | "F"cc c2 a2 | "C7"ba gf ed | "F"cf ac fa | "C7"=Bc eg c'e | "F"f2 z2z2 :| 

